web/packages/design/src/ResourceIcon/assets/sanity.svg

<svg width="72" height="72" viewBox="0 0 72 72" fill="none" xmlns="http://www.w3.org/2000/svg">
<g clip-path="url(#clip0_16966_11938)">
<path d="M64.2857 0.00195312H7.71429C3.4538 0.00195312 0 3.45576 0 7.71624V64.2877C0 68.5481 3.4538 72.002 7.71429 72.002H64.2857C68.5462 72.002 72 68.5481 72 64.2877V7.71624C72 3.45576 68.5462 0.00195312 64.2857 0.00195312Z" fill="#F03E2F"/>
<path d="M22.1658 18.645C22.1658 24.8422 26.0744 28.5193 33.8401 30.4736L42.0944 32.3507C49.4744 33.9964 53.9487 38.1365 53.9487 44.8736C54.002 47.8115 53.029 50.676 51.1972 52.9736C51.1972 46.2622 47.6744 42.6364 39.1372 40.4507L31.0372 38.6507C24.5572 37.185 19.543 33.7907 19.543 26.4879C19.508 23.6526 20.4323 20.8888 22.1658 18.645Z" fill="white"/>
<path d="M46.1324 43.2017C49.6553 45.4388 51.1981 48.5245 51.1981 52.9731C48.2924 56.6245 43.1753 58.6817 37.1581 58.6817C27.0267 58.6817 19.9296 53.7959 18.3867 45.2845H28.1067C29.341 49.1931 32.6581 50.9931 37.1067 50.9931C42.5067 50.9931 46.081 48.1645 46.1581 43.2017" fill="white" fill-opacity="0.701961"/>
<path d="M27.2321 27.8248C25.6403 26.8915 24.3296 25.5463 23.4381 23.9307C22.5466 22.3151 22.1073 20.489 22.1664 18.6448C24.995 15.0448 29.8807 12.8076 35.8464 12.8076C46.1321 12.8076 52.1236 18.1562 53.5893 25.6648H44.2293C43.2007 22.7076 40.6293 20.3933 35.9236 20.3933C30.8836 20.3933 27.4378 23.2733 27.2578 27.8505" fill="white" fill-opacity="0.701961"/>
</g>
<defs>
<clipPath id="clip0_16966_11938">
<rect width="72" height="72" fill="white" transform="translate(0 0.00195312)"/>
</clipPath>
</defs>
</svg>

<svg xmlns="http://www.w3.org/2000/svg" width="72" height="72" fill="none" viewBox="0 0 72 72"><g clip-path="url(#a)"><path fill="#f03e2f" d="M64.286.002H7.714A7.714 7.714 0 0 0 0 7.716v56.572a7.714 7.714 0 0 0 7.714 7.714h56.572A7.714 7.714 0 0 0 72 64.288V7.716A7.714 7.714 0 0 0 64.286.002"/><path fill="#fff" d="M22.166 18.645c0 6.197 3.908 9.874 11.674 11.829l8.254 1.877c7.38 1.645 11.855 5.785 11.855 12.523a12.63 12.63 0 0 1-2.752 8.1c0-6.712-3.523-10.338-12.06-12.523l-8.1-1.8c-6.48-1.466-11.494-4.86-11.494-12.163-.035-2.835.89-5.6 2.623-7.843"/><path fill="#fff" fill-opacity=".702" d="M46.132 43.202c3.523 2.237 5.066 5.323 5.066 9.771-2.906 3.651-8.023 5.709-14.04 5.709-10.131 0-17.228-4.886-18.771-13.397h9.72c1.234 3.908 4.551 5.708 9 5.708 5.4 0 8.974-2.829 9.051-7.791M27.232 27.825a10.26 10.26 0 0 1-5.066-9.18c2.829-3.6 7.715-5.837 13.68-5.837 10.286 0 16.278 5.348 17.743 12.857h-9.36c-1.028-2.957-3.6-5.272-8.305-5.272-5.04 0-8.486 2.88-8.666 7.458"/></g><defs><clipPath id="a"><path fill="#fff" d="M0 .002h72v72H0z"/></clipPath></defs></svg>
